img/logo.svg

<svg width="70" height="70" viewBox="0 0 70 70" fill="none" xmlns="http://www.w3.org/2000/svg">
<rect x="2" y="2" width="66" height="66" rx="12" stroke="url(#paint0_linear_1_60)" stroke-width="4"/>
<path d="M47.5173 51.04C45.784 51.04 44.544 50.5467 43.7973 49.56C43.0507 48.5467 42.6773 47.0667 42.6773 45.12C42.6773 43.1733 43.304 38.6933 44.5573 31.68H43.9173C42.2907 33.8133 40.944 36.36 39.8773 39.32C38.8107 42.28 38.1573 44.9467 37.9173 47.32C36.6107 48.5467 35.104 49.16 33.3973 49.16C32.704 49.16 32.0907 48.92 31.5573 48.44C31.0507 47.9333 30.544 47.0667 30.0373 45.84C29.0507 43.36 28.344 38.64 27.9173 31.68H27.2773C25.9707 37.4133 25.3173 41.4533 25.3173 43.8C25.3173 46.1467 25.7173 47.96 26.5173 49.24C24.9173 50.44 23.2507 51.04 21.5173 51.04C19.784 51.04 18.544 50.5467 17.7973 49.56C17.0507 48.5467 16.6773 47.0533 16.6773 45.08C16.6773 43.08 17.5173 37.44 19.1973 28.16L17.0773 23.88C20.0907 21.9333 22.8373 20.96 25.3173 20.96C26.4107 20.96 27.3307 21.08 28.0773 21.32C28.8507 21.5333 29.584 21.96 30.2773 22.6C30.9973 23.24 31.584 24.1333 32.0373 25.28C33.0773 27.8667 33.824 31.64 34.2773 36.6H34.7573C36.144 32.52 38.064 29.0133 40.5173 26.08C41.8507 24.5067 43.4373 23.2667 45.2773 22.36C47.144 21.4533 49.1573 21 51.3173 21C53.3707 21 54.3973 22.24 54.3973 24.72C54.3973 25.5467 53.8773 28.6267 52.8373 33.96C51.824 39.2667 51.3173 42.4267 51.3173 43.44C51.3173 46.0267 51.7173 47.96 52.5173 49.24C50.9173 50.44 49.2507 51.04 47.5173 51.04Z" fill="white"/>
<defs>
<linearGradient id="paint0_linear_1_60" x1="3.29954e-07" y1="5" x2="70" y2="70" gradientUnits="userSpaceOnUse">
<stop stop-color="#326CFF"/>
<stop offset="1" stop-color="#26FFF2"/>
</linearGradient>
</defs>
</svg>

<svg width="70" height="70" fill="none" xmlns="http://www.w3.org/2000/svg"><rect x="2" y="2" width="66" height="66" rx="12" stroke="url(#a)" stroke-width="4"/><path d="M47.517 51.04c-1.733 0-2.973-.493-3.72-1.48-.746-1.013-1.12-2.493-1.12-4.44 0-1.947.627-6.427 1.88-13.44h-.64c-1.626 2.133-2.973 4.68-4.04 7.64-1.066 2.96-1.72 5.627-1.96 8-1.306 1.227-2.813 1.84-4.52 1.84-.693 0-1.306-.24-1.84-.72-.506-.507-1.013-1.373-1.52-2.6-.986-2.48-1.693-7.2-2.12-14.16h-.64c-1.306 5.733-1.96 9.773-1.96 12.12 0 2.347.4 4.16 1.2 5.44-1.6 1.2-3.266 1.8-5 1.8-1.733 0-2.973-.493-3.72-1.48-.746-1.013-1.12-2.507-1.12-4.48 0-2 .84-7.64 2.52-16.92l-2.12-4.28c3.014-1.947 5.76-2.92 8.24-2.92 1.094 0 2.014.12 2.76.36.774.213 1.507.64 2.2 1.28.72.64 1.307 1.533 1.76 2.68 1.04 2.587 1.787 6.36 2.24 11.32h.48c1.387-4.08 3.307-7.587 5.76-10.52a14.688 14.688 0 0 1 4.76-3.72c1.867-.907 3.88-1.36 6.04-1.36 2.054 0 3.08 1.24 3.08 3.72 0 .827-.52 3.907-1.56 9.24-1.013 5.307-1.52 8.467-1.52 9.48 0 2.587.4 4.52 1.2 5.8-1.6 1.2-3.266 1.8-5 1.8Z" fill="#fff"/><defs><linearGradient id="a" x1="0" y1="5" x2="70" y2="70" gradientUnits="userSpaceOnUse"><stop stop-color="#326CFF"/><stop offset="1" stop-color="#26FFF2"/></linearGradient></defs></svg>
